assets/spark/icons/SatisfiedOutline.svg

<svg viewBox="0 0 24 24" xmlns="http://www.w3.org/2000/svg">
    <path d="M8.39386 13.117C8.24604 12.5848 7.69483 12.2733 7.16269 12.4211 6.63056 12.5689 6.319 13.1201 6.46682 13.6523 7.31064 16.69 10.6408 18.5076 13.6518 17.6712 13.6768 17.6643 13.7015 17.6564 13.7259 17.6475 15.5168 16.9963 17.0228 15.5207 17.5336 13.6477 17.6789 13.1149 17.3647 12.5652 16.8319 12.4199 16.2991 12.2745 15.7494 12.5887 15.604 13.1215 15.2872 14.2832 14.317 15.2915 13.0793 15.7543 11.1153 16.2769 8.93126 15.0516 8.39386 13.117ZM6.96764 7.54458C7.41484 7.09738 8.02138 6.84614 8.65382 6.84614 9.28626 6.84614 9.8928 7.09738 10.34 7.54458 10.7872 7.99178 11.0384 8.59832 11.0384 9.23075 11.0384 9.78304 10.5907 10.2308 10.0384 10.2308 9.48615 10.2308 9.03844 9.78304 9.03844 9.23075 9.03844 9.12875 8.99791 9.03092 8.92578 8.95879 8.85365 8.88666 8.75583 8.84614 8.65382 8.84614 8.55181 8.84614 8.45399 8.88666 8.38186 8.95879 8.30973 9.03092 8.2692 9.12875 8.2692 9.23075 8.2692 9.78304 7.82149 10.2308 7.26921 10.2308 6.71692 10.2308 6.26921 9.78304 6.26921 9.23075 6.26921 8.59832 6.52044 7.99178 6.96764 7.54458ZM15.3457 6.84614C14.7133 6.84614 14.1067 7.09738 13.6595 7.54458 13.2123 7.99178 12.9611 8.59832 12.9611 9.23075 12.9611 9.78304 13.4088 10.2308 13.9611 10.2308 14.5134 10.2308 14.9611 9.78304 14.9611 9.23075 14.9611 9.12875 15.0016 9.03092 15.0738 8.95879 15.1459 8.88666 15.2437 8.84614 15.3457 8.84614 15.4477 8.84614 15.5455 8.88666 15.6177 8.95879 15.6898 9.03092 15.7303 9.12875 15.7303 9.23075 15.7303 9.78304 16.178 10.2308 16.7303 10.2308 17.2826 10.2308 17.7303 9.78304 17.7303 9.23075 17.7303 8.59832 17.4791 7.99178 17.0319 7.54458 16.5847 7.09738 15.9782 6.84614 15.3457 6.84614Z"/><path fill-rule="evenodd" clip-rule="evenodd" d="M12 2C6.47715 2 2 6.47715 2 12C2 17.5229 6.47716 22 12 22C17.5229 22 22 17.5229 22 12C22 6.47716 17.5229 2 12 2ZM4 12C4 7.58172 7.58172 4 12 4C16.4183 4 20 7.58172 20 12C20 16.4183 16.4183 20 12 20C7.58172 20 4 16.4183 4 12Z"/>
</svg>

<svg viewBox="0 0 24 24" xmlns="http://www.w3.org/2000/svg">
  <path d="m8.39,13.12c-.15-.53-.7-.84-1.23-.7-.53.15-.84.7-.7,1.23.84,3.04,4.17,4.86,7.18,4.02.02,0,.05-.01.07-.02,1.79-.65,3.3-2.13,3.81-4,.15-.53-.17-1.08-.7-1.23-.53-.15-1.08.17-1.23.7-.32,1.16-1.29,2.17-2.52,2.63-1.96.52-4.15-.7-4.69-2.64Zm-1.43-5.57c.45-.45,1.05-.7,1.69-.7s1.24.25,1.69.7.7,1.05.7,1.69c0,.55-.45,1-1,1s-1-.45-1-1c0-.1-.04-.2-.11-.27-.07-.07-.17-.11-.27-.11s-.2.04-.27.11-.11.17-.11.27c0,.55-.45,1-1,1s-1-.45-1-1c0-.63.25-1.24.7-1.69Zm8.38-.7c-.63,0-1.24.25-1.69.7s-.7,1.05-.7,1.69c0,.55.45,1,1,1s1-.45,1-1c0-.1.04-.2.11-.27.07-.07.17-.11.27-.11s.2.04.27.11c.07.07.11.17.11.27,0,.55.45,1,1,1s1-.45,1-1c0-.63-.25-1.24-.7-1.69-.45-.45-1.05-.7-1.69-.7Z"/>
  <path d="m12,2C6.48,2,2,6.48,2,12s4.48,10,10,10,10-4.48,10-10S17.52,2,12,2ZM4,12c0-4.42,3.58-8,8-8s8,3.58,8,8-3.58,8-8,8-8-3.58-8-8Z"/>
</svg>
